!!!OTL: Der teutsche Mann.
!!!OTL-incipit:WER IST EIN MANN
!!!COM: Volksmelodie
!!!ARE: Europa, Mitteleuropa, Deutschland
!!!SCT: F0411
!!!TXL: @@DE
!!!YEM: Copyright 1995, estate of Helmut Schaffrath.
**kern	**text
*ICvox	*
*clefG2	*
*M4/4	*
*met(c)	*
*k[f#c#]	*
*D:	*
!LO:TX:a:t=Langſam und mit Nachdruck.	!
{8a	1._Wer
8b/	iſt
8cc#	ein
=1	=1
4.dd	Mann?
8f#	der
4.a	be-
8c#	-ten
=2	=2
2d	kann,
8r}	.
{8d	und
8e	Gott
8f#	dem
=3	=3
2g	Herrn
2a	ver-
=4	=4
2f#	-traut!
4r}	.
!LO:TX:a:t=Lebhafter.	!
{8gL	Er
8f#J	.
=5	=5
8.eL	ʒa-
16f#J	.
8.gL	-get
16f#J	.
4d	nicht,
(8ddL	wenn
8cc#J)	.
=6	=6
8.bL	Al-
16cc#J	.
8.ddL	-les
16bJ	.
4a}	bricht,
{4dd	dem
=7	=7
4ee	Frommen
4ee	.
8ddL	nim-
8cc#J	.
8bL	-mer
8ccJ#	.
=8	=8
2.dd}	graut,
{8ddL	dem
8bJ	.
=9	=9
4a	Frommen
8gL	.
8f#J	.
4g	nimmer
4e	.
=10	=10
2d	graut.
8r}	.
==	==
!!!AGN: Vaterlands -, Heimat - Lied, nationalistisch
!!!ONB: ESAC (Essen Associative Code) Database: FINK
!!!AMT: simple quadruple
!!!AIN: vox
!!!EED: Helmut Schaffrath
!!!EEV: 1.0
!!!GTL: Vaterlands- und Heimathslieder
!!Text: G. M. Arndt
!!!source: Musikalischer Hausschatz der Deutschen. Eine Sammlung von über 1000 Liedern und Gesängen mit Singstimmen und Klavierbegleitung. Leipzig, Litterarisches Verlags-Haus.
!!!page: 251
!!!URL-scan: https://www.digitale-sammlungen.de/en/view/bsb11144622?page=242,243
!!!ENC: Anna Maria Matuszewska
!!!EEV: 2024/07/31
*-	*-
